brandFactory_export/1.Light/Trebol_1Light.svg

<?xml version="1.0" encoding="UTF-8"?>
<svg width="24px" height="24px" viewBox="0 0 24 24" version="1.1" xmlns="http://www.w3.org/2000/svg" xmlns:xlink="http://www.w3.org/1999/xlink">
    <title>1.Light/Trebol_1Light</title>
    <g id="Symbols" stroke="none" stroke-width="1" fill="none" fill-rule="evenodd">
        <g id="1.Light/Trebol_1Light" fill="#5CB615" fill-rule="nonzero">
            <path d="M11.0588235,18.2957983 C10.4672269,19.6201681 9.59327731,20.4840336 8.71596639,20.6151261 C8.05714286,20.7092437 7.40168067,20.4 6.76302521,19.6840336 L6.62521008,19.5294118 L6.41344538,19.512605 C5.43193277,19.4285714 4.78319328,19.0991597 4.48739496,18.5344538 C4.0907563,17.7781513 4.32605042,16.5983193 5.11596639,15.3714286 C6.13445378,13.7848739 9.53613445,12.0605042 11.005042,11.4554622 C11.3411765,12.9478992 11.8285714,16.5848739 11.0588235,18.2957983 M3.49915966,10.5310924 C2.10756303,9.9697479 1.19663866,9.13613445 1.06554622,8.29915966 C0.964705882,7.67394958 1.29411765,7.0487395 2.04369748,6.44033613 L2.20504202,6.3092437 L2.22521008,6.10756303 C2.31260504,5.17310924 2.65882353,4.55462185 3.25042017,4.27226891 C3.50252101,4.1512605 3.80504202,4.0907563 4.13781513,4.0907563 C4.84369748,4.0907563 5.69747899,4.35966387 6.57142857,4.87058824 C8.23865546,5.84201681 10.0504202,9.0789916 10.6857143,10.4773109 C9.11596639,10.8 5.29411765,11.2638655 3.49915966,10.5310924 M11.6504202,3.33109244 C12.2420168,2.00672269 13.1159664,1.1394958 13.9932773,1.01176471 C14.0705882,0.998319328 14.1478992,0.994957983 14.2252101,0.994957983 C14.8033613,0.994957983 15.3815126,1.31428571 15.9462185,1.94285714 L16.0840336,2.09747899 L16.2957983,2.11764706 C17.2773109,2.20168067 17.9260504,2.53109244 18.2218487,3.09579832 C18.6184874,3.85210084 18.3831933,5.03193277 17.589916,6.25882353 C16.5714286,7.84537815 13.1731092,9.5697479 11.7008403,10.1747899 C11.3714286,8.68235294 10.8806723,5.04537815 11.6504202,3.33109244 M19.210084,11.0957983 C20.5983193,11.6605042 21.5092437,12.4941176 21.6436975,13.3277311 C21.7445378,13.9529412 21.4151261,14.5781513 20.6689076,15.1865546 L20.5042017,15.3176471 L20.4840336,15.5193277 C20.3966387,16.4537815 20.0504202,17.0722689 19.4554622,17.3546218 C18.6621849,17.7344538 17.4218487,17.5092437 16.1344538,16.7529412 C14.5747899,15.8487395 12.907563,12.9848739 12.1781513,11.4621849 C12.1747899,11.4588235 12.1747899,11.4554622 12.1714286,11.4521008 C12.1210084,11.3478992 12.0638655,11.2302521 12.0235294,11.1428571 C13.5966387,10.8268908 17.4151261,10.3596639 19.210084,11.0957983 M16.5008403,21.0957983 C18.5210084,22.712605 20.7663866,23.6235294 22.7226891,23.6235294 C22.810084,23.6235294 22.9008403,23.6201681 22.9882353,23.6168067 C23.1327731,23.610084 23.2739496,23.5630252 23.3915966,23.4890756 C23.6336134,23.3378151 23.697479,23.0252101 23.5361345,22.8 C23.3882353,22.5915966 23.1596639,22.605042 22.8773109,22.6252101 C21.1394958,22.6823529 19.0655462,21.8487395 17.1764706,20.3327731 L17.092437,20.2655462 C15.4453782,18.9445378 14.1747899,17.2638655 13.3445378,15.394958 C14.0336134,16.3193277 14.8033613,17.1495798 15.589916,17.6067227 C16.6352941,18.2218487 17.6672269,18.5344538 18.5714286,18.5344538 C19.0689076,18.5344538 19.5260504,18.4403361 19.9294118,18.2487395 C20.5478992,17.9529412 21.3109244,17.2907563 21.5058824,15.8117647 C22.6588235,14.8033613 22.7831933,13.8285714 22.6789916,13.1764706 C22.487395,11.9798319 21.3714286,10.887395 19.6235294,10.1781513 C18.3831933,9.67394958 16.4773109,9.64705882 14.7764706,9.77815126 C16.2420168,8.94789916 17.7848739,7.87563025 18.487395,6.77983193 C19.4857143,5.23697479 19.7310924,3.73109244 19.1596639,2.6487395 C18.8504202,2.0605042 18.1546218,1.33445378 16.6016807,1.14621849 C15.5394958,0.0470588235 14.5176471,-0.0739495798 13.8352941,0.0302521008 C12.5781513,0.21512605 11.4319328,1.27731092 10.6890756,2.94453782 C10.1579832,4.12436975 10.1277311,5.9394958 10.2689076,7.55630252 C9.39831933,6.16134454 8.27226891,4.69579832 7.12268908,4.02689076 C5.50252101,3.07563025 3.91932773,2.84033613 2.78655462,3.38487395 C2.16806723,3.68067227 1.40504202,4.34285714 1.21008403,5.82184874 C0.0571428571,6.8302521 -0.0672268908,7.80504202 0.0369747899,8.45714286 C0.228571429,9.65378151 1.34453782,10.7462185 3.09579832,11.4521008 C3.94285714,11.8016807 5.10588235,11.9226891 6.29915966,11.9226891 C6.85042017,11.9226891 7.40504202,11.8957983 7.94285714,11.8521008 C6.47394958,12.6823529 4.93445378,13.7546218 4.22857143,14.8504202 C3.2302521,16.3932773 2.98487395,17.8991597 3.55630252,18.9815126 C3.86554622,19.5697479 4.56134454,20.2957983 6.11428571,20.4806723 C6.98823529,21.3882353 7.83865546,21.6268908 8.49411765,21.6268908 C8.63193277,21.6268908 8.76302521,21.6134454 8.88403361,21.5966387 C10.1411765,21.4151261 11.287395,20.3495798 12.0302521,18.6857143 C12.3495798,17.9764706 12.4840336,17.0352941 12.5142857,16.0470588 C13.4084034,17.9529412 14.7327731,19.6705882 16.4268908,21.0285714" id="Trebol_1Light"></path>
        </g>
    </g>
</svg>

<svg width="24" height="24" viewBox="0 0 24 24" xmlns="http://www.w3.org/2000/svg"><path d="M11.059 18.296c-.592 1.324-1.466 2.188-2.343 2.32-.659.093-1.314-.216-1.953-.932l-.138-.155-.212-.016c-.981-.084-1.63-.414-1.926-.979-.396-.756-.16-1.936.629-3.163 1.018-1.586 4.42-3.31 5.889-3.916.336 1.493.824 5.13.054 6.84m-7.56-7.764C2.108 9.97 1.197 9.136 1.066 8.3c-.101-.625.228-1.25.978-1.859l.161-.13.02-.202c.088-.935.434-1.553 1.025-1.836.253-.12.555-.181.888-.181.706 0 1.56.269 2.433.78 1.668.971 3.48 4.208 4.115 5.606-1.57.323-5.392.787-7.187.054m8.151-7.2c.592-1.324 1.466-2.192 2.343-2.32.078-.013.155-.016.232-.016.578 0 1.157.32 1.721.948l.138.154.212.02c.981.085 1.63.414 1.926.979.396.756.161 1.936-.632 3.163-1.019 1.586-4.417 3.31-5.89 3.916-.329-1.493-.82-5.13-.05-6.844m7.56 7.765c1.388.565 2.3 1.398 2.434 2.232.1.625-.229 1.25-.975 1.859l-.165.13-.02.202c-.087.935-.434 1.553-1.029 1.836-.793.38-2.033.154-3.32-.602-1.56-.904-3.227-3.768-3.957-5.29-.003-.004-.003-.008-.007-.01-.05-.105-.107-.223-.147-.31 1.573-.316 5.391-.783 7.186-.047m-2.71 10c2.021 1.617 4.266 2.528 6.223 2.528a7 7 0 00.265-.007.84.84 0 00.404-.128.48.48 0 00.144-.689c-.148-.208-.376-.195-.659-.175-1.738.057-3.811-.776-5.7-2.292l-.085-.067a13.01 13.01 0 01-3.747-4.871c.689.924 1.458 1.755 2.245 2.212 1.045.615 2.077.927 2.981.927a3.14 3.14 0 001.358-.285c.619-.296 1.382-.958 1.577-2.437 1.153-1.009 1.277-1.983 1.173-2.636-.192-1.196-1.308-2.289-3.055-2.998-1.24-.504-3.147-.53-4.848-.4 1.466-.83 3.009-1.902 3.711-2.998.999-1.543 1.244-3.049.673-4.131-.31-.588-1.005-1.315-2.558-1.503C15.539.047 14.518-.074 13.835.03c-1.257.185-2.403 1.247-3.146 2.915-.531 1.18-.561 2.994-.42 4.611-.87-1.395-1.997-2.86-3.146-3.53-1.62-.95-3.204-1.186-4.336-.641-.619.296-1.382.958-1.577 2.437C.057 6.83-.067 7.805.037 8.457c.192 1.197 1.308 2.29 3.059 2.995.847.35 2.01.47 3.203.47.551 0 1.106-.026 1.644-.07-1.47.83-3.009 1.903-3.714 2.998-.999 1.543-1.244 3.05-.673 4.132.31.588 1.005 1.314 2.558 1.499.874.907 1.725 1.146 2.38 1.146.138 0 .269-.014.39-.03 1.257-.182 2.403-1.247 3.146-2.911.32-.71.454-1.65.484-2.639a14.004 14.004 0 003.913 4.982" fill="#5CB615" fill-rule="nonzero"/></svg>
